icons/svg/cart.svg

﻿<?xml version="1.0" encoding="utf-8"?>
<!DOCTYPE svg PUBLIC "-//W3C//DTD SVG 1.1//EN" "http://www.w3.org/Graphics/SVG/1.1/DTD/svg11.dtd">
<svg xmlns="http://www.w3.org/2000/svg" xmlns:xlink="http://www.w3.org/1999/xlink" version="1.1" baseProfile="full" width="24" height="24" viewBox="0 0 24.00 24.00" enable-background="new 0 0 24.00 24.00" xml:space="preserve">
	<path fill="#000000" fill-opacity="1" stroke-width="0.2" stroke-linejoin="round" d="M 16.9994,17.9981C 15.8944,17.9981 15.0094,18.8931 15.0094,19.9981C 15.0094,21.1031 15.8944,21.9981 16.9994,21.9981C 18.1034,21.9981 18.9994,21.1031 18.9994,19.9981C 18.9994,18.8931 18.1034,17.9981 16.9994,17.9981 Z M 0.99939,1.99807L 0.99939,3.99807L 2.99939,3.99807L 6.59607,11.5851L 5.24438,14.0371C 5.08839,14.3221 4.99939,14.6501 4.99939,14.9981C 4.99939,16.1031 5.89439,16.9981 6.99939,16.9981L 18.9994,16.9981L 18.9994,14.9981L 7.42239,14.9981C 7.28439,14.9981 7.17239,14.8871 7.17239,14.7481C 7.17239,14.7041 7.18439,14.6621 7.20439,14.6271L 8.10139,12.9981L 15.5504,12.9981C 16.3024,12.9981 16.9574,12.5831 17.2994,11.9691L 20.8754,5.48006C 20.9544,5.33806 20.9994,5.17307 20.9994,4.99807C 20.9994,4.44507 20.5514,3.99807 19.9994,3.99807L 5.21239,3.99807L 4.2654,1.99807M 6.99939,17.9981C 5.89439,17.9981 5.00938,18.8931 5.00938,19.9981C 5.00938,21.1031 5.89439,21.9981 6.99939,21.9981C 8.10339,21.9981 8.99939,21.1031 8.99939,19.9981C 8.99939,18.8931 8.10339,17.9981 6.99939,17.9981 Z "/>
</svg>

<svg xmlns="http://www.w3.org/2000/svg" version="1.1" baseProfile="full" width="24" height="24" viewBox="0 0 24.00 24.00" xml:space="preserve"><path fill="#000" fill-opacity="1" stroke-width=".2" stroke-linejoin="round" d="M17 17.998c-1.106 0-1.99.895-1.99 2s.884 2 1.99 2c1.103 0 2-.895 2-2s-.897-2-2-2zm-16-16v2h2l3.596 7.587-1.352 2.452c-.156.285-.245.613-.245.96 0 1.106.894 2 2 2h12v-2H7.42c-.138 0-.25-.11-.25-.25 0-.043.012-.085.032-.12l.897-1.63h7.45c.752 0 1.407-.414 1.75-1.028l3.575-6.49c.08-.142.124-.307.124-.482 0-.553-.45-1-1-1H5.21l-.947-2m2.734 16c-1.106 0-1.99.895-1.99 2s.884 2 1.99 2c1.103 0 2-.895 2-2s-.897-2-2-2z"/></svg>
